assets/icons/wind.svg

<?xml version="1.0" encoding="UTF-8" standalone="no"?>
<svg viewBox="0 0 24 24" height="24" width="24" version="1.1" id="svg4" sodipodi:docname="windy.svg" inkscape:version="1.1 (ce6663b3b7, 2021-05-25)"
   xmlns:inkscape="http://www.inkscape.org/namespaces/inkscape"
   xmlns:sodipodi="http://sodipodi.sourceforge.net/DTD/sodipodi-0.dtd"
   xmlns="http://www.w3.org/2000/svg"
   xmlns:svg="http://www.w3.org/2000/svg">
   <defs id="defs8" />
   <sodipodi:namedview id="namedview6" pagecolor="#ffffff" bordercolor="#666666" borderopacity="1.0" inkscape:pageshadow="2" inkscape:pageopacity="0.0" inkscape:pagecheckerboard="0" showgrid="true" inkscape:snap-page="true" inkscape:zoom="14" inkscape:cx="-9.8214286" inkscape:cy="-0.78571429" inkscape:window-width="1920" inkscape:window-height="1043" inkscape:window-x="1920" inkscape:window-y="0" inkscape:window-maximized="1" inkscape:current-layer="svg4">
      <inkscape:grid type="xygrid" id="grid6" />
      <inkscape:grid type="xygrid" id="grid1110" dotted="true" spacingx="0.5" spacingy="0.5" empspacing="10" />
   </sodipodi:namedview>
   <path id="path52" style="fill:#808080;fill-rule:evenodd;fill-opacity:1" d="M 12.5 6 C 11.916667 6 11.430885 6.1446096 11.074219 6.4121094 C 10.717552 6.6796091 10.5 7.0833337 10.5 7.5 A 0.5 0.5 0 0 0 11 8 A 0.5 0.5 0 0 0 11.5 7.5 C 11.5 7.416667 11.53245 7.3203905 11.675781 7.2128906 C 11.819114 7.1053907 12.083334 7 12.5 7 C 12.916666 7 13.139336 7.096367 13.271484 7.2285156 C 13.403633 7.3606644 13.5 7.5833338 13.5 8 C 13.5 8.4166663 13.40363 8.6393356 13.271484 8.7714844 C 13.139336 8.9036331 12.916666 9 12.5 9 L 6.5 9 C 6.223 9 6 9.223 6 9.5 C 6 9.777 6.223 10 6.5 10 L 12.5 10 C 13.083333 10 13.610665 9.8463664 13.978516 9.4785156 C 14.346366 9.1106649 14.5 8.5833328 14.5 8 C 14.5 7.4166672 14.346366 6.8893351 13.978516 6.5214844 C 13.610665 6.1536336 13.083333 6 12.5 6 z M 19 6 C 17.277779 6 16 7.166668 16 8.5 A 0.5 0.5 0 0 0 16.5 9 A 0.5 0.5 0 0 0 17 8.5 C 17 7.833334 17.722223 7 19 7 C 19.638888 7 20.1225 7.2045312 20.458984 7.5410156 C 20.795469 7.8775 21 8.3611118 21 9 C 21 9.6388883 20.795469 10.1225 20.458984 10.458984 C 20.1225 10.795469 19.638888 11 19 11 L 4 11 A 2 2 0 0 0 2 13 A 2 2 0 0 0 4 15 L 15 15 C 15.416666 15 15.639336 15.09637 15.771484 15.228516 C 15.903633 15.360664 16 15.583334 16 16 C 16 16.416666 15.90363 16.639336 15.771484 16.771484 C 15.639336 16.903633 15.416666 17 15 17 C 14.583334 17 14.319114 16.894609 14.175781 16.787109 C 14.032448 16.679609 14 16.583333 14 16.5 A 0.5 0.5 0 0 0 13.5 16 A 0.5 0.5 0 0 0 13 16.5 C 13 16.916666 13.217552 17.320391 13.574219 17.587891 C 13.930885 17.85539 14.416667 18 15 18 C 15.583333 18 16.110665 17.846366 16.478516 17.478516 C 16.846366 17.110665 17 16.583333 17 16 C 17 15.416667 16.846366 14.889335 16.478516 14.521484 C 16.110665 14.153634 15.583333 14 15 14 L 5.7265625 14 L 4 14 A 1 1 0 0 1 3 13 A 1 1 0 0 1 4 12 L 5.7304688 12 L 19 12 C 19.86111 12 20.627501 11.70453 21.166016 11.166016 C 21.70453 10.627501 22 9.8611102 22 9 C 22 8.1388898 21.70453 7.3724991 21.166016 6.8339844 C 20.627501 6.2954697 19.86111 6 19 6 z " />
</svg>

<svg height="24" width="24" xmlns="http://www.w3.org/2000/svg"><path style="fill:gray;fill-opacity:1" d="M12.5 6c-.583 0-1.07.145-1.426.412-.356.268-.574.671-.574 1.088a.5.5 0 0 0 .5.5.5.5 0 0 0 .5-.5c0-.083.032-.18.176-.287.143-.108.407-.213.824-.213s.64.096.771.229c.133.132.229.354.229.771 0 .417-.096.64-.229.771-.132.133-.354.229-.771.229h-6a.499.499 0 1 0 0 1h6c.583 0 1.11-.154 1.479-.521.367-.368.521-.896.521-1.479 0-.583-.154-1.11-.521-1.479C13.61 6.154 13.083 6 12.5 6zM19 6c-1.722 0-3 1.167-3 2.5a.5.5 0 0 0 .5.5.5.5 0 0 0 .5-.5c0-.667.722-1.5 2-1.5.639 0 1.122.205 1.459.541.336.337.541.82.541 1.459 0 .639-.205 1.123-.541 1.459-.337.336-.82.541-1.459.541H4a2 2 0 0 0-2 2 2 2 0 0 0 2 2h11c.417 0 .64.096.771.229.133.132.229.354.229.771 0 .417-.096.64-.229.771-.132.133-.354.229-.771.229-.417 0-.68-.105-.824-.213-.144-.107-.176-.204-.176-.287a.5.5 0 0 0-.5-.5.5.5 0 0 0-.5.5c0 .417.218.82.574 1.088.357.267.843.412 1.426.412s1.11-.154 1.479-.521c.367-.368.521-.896.521-1.479 0-.583-.154-1.11-.521-1.479C16.11 14.154 15.583 14 15 14H4a1 1 0 0 1-1-1 1 1 0 0 1 1-1h15c.861 0 1.628-.295 2.166-.834C21.705 10.628 22 9.861 22 9s-.295-1.628-.834-2.166C20.628 6.295 19.861 6 19 6z"/></svg>
